!!!ONB: MCCC : ISR0077_02 : Extracted Monophonic Melody
!!!COM: Rachmaninoff, Sergei
!!!OPR: 5 Morceaux de fantaisie
!!!OMV: 2
!!!SCT: Op.3
!!!ODT: 1892///
**kern
*staff1
*IPiano
*clefG2
*k[f#c#g#d#]
*E:
*met(c)
*M4/4
4A
4G#
=1
1C#[
=2
8C#]
8cc#
8ee
8dd#
4A
4G#
=3
2C#
8cc#
8ee
8dd#
4A
8dd
4G#
8b#
=4
2C#
8cc#
8gg#
8ff#
4c
8ee
4B
8dd#
=5
2E
8ee
8bb
8aa
4e
8gg#
4d#
8ff##
=6
1G#
8gg#
8aa
8ff#
8gg#
8ee
8ff#
8dd#
=7
8ee
8ee
8ff#
8dd#
8ee
8cc#
8dd#
8b#
=8
8cc#
8cc#
8ee
8dd#
4A
8dd
4G#
8b#
=9
2C#
8cc#
8gg#
8ff#
4A
8ee
4G#
8b#
=10
1C#
8cc#
8dd
8b
8cc#
8a
8b
8g#
=11
8a
8a
8cc#
8b
4F##
8a
4G#
8g#
=12
2C#
4A
4G#
=13
2C#
4A
4G#
=14
12e
12G#
12c#
12d#
12F##
12c#
12d
12F#
12B#
12c#
12E
12G#
=15
12e
12G#
12c#
12d#
12F##
12c#
12d
12F#
12B#
12c#
12E
12G#
=16
12g#
12G#
12c#
12f#
12A
12c#
12a
12F#
12c#
12g#
12G#
12c#
=17
12f#
12F#
12c#
12f#
12F#
12e
4f#
12e
12E
12d#
4e
=18
12e
12G#
12c#
12d#
12F##
12c#
12d
12F#
12B#
12c#
12E
12G#
=19
12e
12G#
12c#
12d#
12F##
12c#
12d
12F#
12B#
12c#
12E
12G#
=20
12g#
12G#
12c#
12f#
12A
12c#
12a
12F#
12c#
12g#
12G#
12c#
=21
12cc#
12c#
12a
4cc#
12dd
12d
12g#
4dd
4cc#
=22
12ff#
12a
12dd#
12ee
12g#
12cc#
12dd
12e#
12b
12cc#
12f#
12a
=23
12dd
12e#
12b
12cc#
12f#
12a
12b
12d
12g#
12a
12c#
12f#
=24
12a
12B#
12f#
12g#
12c#
12e
12f#
12A
12d#
12e
12G#
12c#
=25
12d
12A
12c#
12a
12A
12c#
12d#
12A#
12c#
12a#
12A#
12c#
4d#
4a#
=26
12e
12B
12d#
12b
12B
12d#
12b#
12B#
12f#
12cc#
12c#
12e
=27
12ee
12g#
12cc#
12dd#
12f##
12cc#
12dd
12f#
12b#
12cc#
12e
12g#
=28
12ee
12g#
12cc#
12dd#
12f##
12cc#
12dd
12f#
12b#
12cc#
12e
12g#
=29
12gg#
12g#
12cc#
12ff#
12a
12cc#
12aa
12f#
12cc#
12gg#
12g#
12cc#
=30
12ff#
12f#
12ee
12ff#
12f#
12cc#
12ee
12f#
12dd#
12ee
12e
12cc#
=31
12ee
12g#
12cc#
12dd#
12f##
12cc#
12dd
12f#
12b#
12cc#
12e
12g#
=32
12ee
12g#
12cc#
12dd#
12f##
12cc#
12dd
12f#
12b#
12cc#
12e
12g#
=33
12gg#
12g#
12cc#
12ff#
12a
12cc#
12aa
12f#
12cc#
12gg#
12g#
12cc#
=34
12bb
12dd
12gg#
12aa
12cc#
12ff#
12ddd
12ee#
12bb
12ccc#
12ff#
12aa
=35
12fff#
12aa
12ddd#
12eee
12gg#
12ccc#
4fff#
4eee
12aaa
12aaa
12ggg#
=36
12fff#
12fff#
12eee
12ddd
12ddd
12ccc#
=37
12bb
12bb
12aa
12aa
12aa
12gg#
=38
12ff#
12ff#
12ee
12dd
12dd
12cc#
=39
12b
12b
12a
12a
12a
12g#
=40
12f#
12f#
12e
12a
12a
12g#
=41
12f#
12f#
12e
12f#
12f#
12e
=42
12f#
12f#
12e
12f#
12f#
12e
=43
1a
=44
1g#
=45
8r
8ccc#
8eee
8ddd#
8r
8ddd
8r
8bb#
=46
8r
8ccc#
8eee
8ddd#
8r
8ddd
8r
8bb#
=47
8r
8ccc#
8ggg#
8fff#
8r
8eee
8r
8ddd#
=48
8r
8eee
8bbb
8aaa
8r
8ggg#
8r
8fff##
=49
8r
8ggg#
8aaa
8fff#
8ggg#
8eee
8fff#
8ddd#
=50
8eee
8eee
8fff#
8ddd#
8eee
8ccc#
8ddd#
8bb#
=51
8ccc#
8ccc#
8eee
8ddd#
8r
8ddd
8r
8bb#
=52
8r
8ccc#
8ggg#
8fff#
8r
8eee
8r
8bb#
=53
8ccc#
8cc#
8dd
8b
8cc#
8a
8b
8g#
=54
8a
8a
8cc#
8b
8r
8a
8r
8g#
=55
4r
2.cc#
=56
4r
2.cc#
=57
4r
2.cc#
=58
4r
2.cc#
=59
4r
2.cc#
=60
2r
4.cc#
8gg#
=61
1gg#
==
*-
